gama.ui.shared/icons_svg/light/overlays/small.exp.batch.green.svg

<svg height="16" viewBox="-542.174 -3506.979 16 16" width="16" xmlns="http://www.w3.org/2000/svg"><g fill="none"><path d="m-537.9475-3503.645h-1.89335c-.18665 0-.33335-.1468-.33335-.3334s.1467-.3334.33335-.3334h2.66665c.1867 0 .33335.1468.33335.3334v2.6666c0 .1868-.14665.3334-.33335.3334-.18665 0-.3333-.1466-.3333-.3334v-1.8332c-1.2467 1-2 2.52-2 4.1666 0 2.9466 2.38665 5.3334 5.3333 5.3334 2.9467 0 5.33335-2.3868 5.33335-5.3334s-2.21335-5.1666-5.02-5.3266c-.18665-.0134-.32665-.1668-.31335-.3534.01335-.1866.1667-.3266.3467-.3134 3.16665.18 5.6533 2.8068 5.6533 5.9868s-2.68665 6-6 6c-3.3133 0-6-2.68-6-5.9934 0-1.8466.83335-3.5466 2.2267-4.6666z" fill="#4e8234"/><path d="m-537.9475-3503.645h-1.89335c-.18665 0-.33335-.1468-.33335-.3334s.1467-.3334.33335-.3334h2.66665c.1867 0 .33335.1468.33335.3334v2.6666c0 .1868-.14665.3334-.33335.3334-.18665 0-.3333-.1466-.3333-.3334v-1.8332c-1.2467 1-2 2.52-2 4.1666 0 2.9466 2.38665 5.3334 5.3333 5.3334 2.9467 0 5.33335-2.3868 5.33335-5.3334s-2.21335-5.1666-5.02-5.3266c-.18665-.0134-.32665-.1668-.31335-.3534.01335-.1866.1667-.3266.3467-.3134 3.16665.18 5.6533 2.8068 5.6533 5.9868s-2.68665 6-6 6c-3.3133 0-6-2.68-6-5.9934 0-1.8466.83335-3.5466 2.2267-4.6666z" stroke="#508034" stroke-linejoin="round" stroke-width=".25"/></g></svg>

<?xml version="1.0" encoding="UTF-8" standalone="no"?>
<!DOCTYPE svg PUBLIC "-//W3C//DTD SVG 1.1//EN" "http://www.w3.org/Graphics/SVG/1.1/DTD/svg11.dtd">
<svg version="1.1" xmlns="http://www.w3.org/2000/svg" xmlns:xl="http://www.w3.org/1999/xlink" xmlns:dc="http://purl.org/dc/elements/1.1/" viewBox="-542.1742 -3506.979 16.000008 16.000008" width="16.000008" height="16.000008">
  <defs/>
  <g id="SOURCES" stroke-dasharray="none" fill="none" stroke="none" fill-opacity="1" stroke-opacity="1">
    <title>SOURCES</title>
    <g id="SOURCES_Calque_2">
      <title>Calque 2</title>
      <g id="Graphic_9586"/>
      <g id="Group_9587">
        <title>rotate-right</title>
        <g id="Graphic_9588">
          <path d="M -537.9475 -3503.645 L -539.84085 -3503.645 C -540.0275 -3503.645 -540.1742 -3503.7918 -540.1742 -3503.9784 C -540.1742 -3504.165 -540.0275 -3504.3118 -539.84085 -3504.3118 L -537.1742 -3504.3118 C -536.9875 -3504.3118 -536.84085 -3504.165 -536.84085 -3503.9784 L -536.84085 -3501.3118 C -536.84085 -3501.125 -536.9875 -3500.9784 -537.1742 -3500.9784 C -537.36085 -3500.9784 -537.5075 -3501.125 -537.5075 -3501.3118 L -537.5075 -3503.145 C -538.7542 -3502.145 -539.5075 -3500.625 -539.5075 -3498.9784 C -539.5075 -3496.0318 -537.12085 -3493.645 -534.1742 -3493.645 C -531.2275 -3493.645 -528.84085 -3496.0318 -528.84085 -3498.9784 C -528.84085 -3501.925 -531.0542 -3504.145 -533.86085 -3504.305 C -534.0475 -3504.3184 -534.1875 -3504.4718 -534.1742 -3504.6584 C -534.16085 -3504.845 -534.0075 -3504.985 -533.8275 -3504.9718 C -530.66085 -3504.7918 -528.1742 -3502.165 -528.1742 -3498.985 C -528.1742 -3495.805 -530.86085 -3492.985 -534.1742 -3492.985 C -537.4875 -3492.985 -540.1742 -3495.665 -540.1742 -3498.9784 C -540.1742 -3500.825 -539.34085 -3502.525 -537.9475 -3503.645 Z" fill="#4e8234"/>
          <path d="M -537.9475 -3503.645 L -539.84085 -3503.645 C -540.0275 -3503.645 -540.1742 -3503.7918 -540.1742 -3503.9784 C -540.1742 -3504.165 -540.0275 -3504.3118 -539.84085 -3504.3118 L -537.1742 -3504.3118 C -536.9875 -3504.3118 -536.84085 -3504.165 -536.84085 -3503.9784 L -536.84085 -3501.3118 C -536.84085 -3501.125 -536.9875 -3500.9784 -537.1742 -3500.9784 C -537.36085 -3500.9784 -537.5075 -3501.125 -537.5075 -3501.3118 L -537.5075 -3503.145 C -538.7542 -3502.145 -539.5075 -3500.625 -539.5075 -3498.9784 C -539.5075 -3496.0318 -537.12085 -3493.645 -534.1742 -3493.645 C -531.2275 -3493.645 -528.84085 -3496.0318 -528.84085 -3498.9784 C -528.84085 -3501.925 -531.0542 -3504.145 -533.86085 -3504.305 C -534.0475 -3504.3184 -534.1875 -3504.4718 -534.1742 -3504.6584 C -534.16085 -3504.845 -534.0075 -3504.985 -533.8275 -3504.9718 C -530.66085 -3504.7918 -528.1742 -3502.165 -528.1742 -3498.985 C -528.1742 -3495.805 -530.86085 -3492.985 -534.1742 -3492.985 C -537.4875 -3492.985 -540.1742 -3495.665 -540.1742 -3498.9784 C -540.1742 -3500.825 -539.34085 -3502.525 -537.9475 -3503.645 Z" stroke="#508034" stroke-linecap="butt" stroke-linejoin="round" stroke-width=".25"/>
        </g>
      </g>
    </g>
  </g>
</svg>
